X: 99
T: Fine Times At Our House
B: canberra pickers and fiddlers
B: old time tunes update
B: tunes
M:4/4
L:1/8
R: reel
Q: 1/4=100
K:Amixolydian
V:1 
|: EFED C2E2 | EFAF ABc2 | EFED C2E2 | ABAG FED2 |
EFED C2E2 | EFAF ABcd | ea2g e2ed | cdBc A2A2 :|
|: edcB ABcd | edef ~g2gf | edcB ABcd | ea2^g a2a2 |
edcB ABcd | edef ~g2gf | ea2^g e2d2 | cdBc A2A2 :|
% abcbook-tune_id 67a7d9ec5fd5eb087fc5ac76
% abcbook-tune_composer_id 
% abcbook-link-0 https://www.youtube.com/watch?v=wYELf9k2nJc
% abcbook-link-title-0 Fine Times at our House
% abcbook-boost 0
% abcbook-difficulty 0
% abcbook-tags old time tunes
% abcbook-tablature 
% abcbook-transpose 
% abcbook-tuning ADAE
% abcbook-lastupdated 1739162052868
% abcbook-src-url 
% abcbook-soundfonts 
% abcbook-repeats 1
% Rhythm Reel
% Titles One title
% Transcriptions Only 1 transcription
% Movement Has lots of stepwise movement
% Movement Has some stepwise movement
% Mode major
% Key D
% Time_signature 4/4
% Has_accompaniment_chords No chords

